X: 1
T: Bach's Frolics
M: 9/8
L: 1/8
R: slip jig
K: Gmaj
BGA Bdc ced|dgf gdB GAB|cde dcB ABG|FGA DFA cBA|
BGA Bdc ced|dgf gdB GAB|c2e dBG Edc|BAG DGF ~G3:|
|:ADE FA^G GBA|AcB cAE CDE|=Fdc dAF DEF|Edc dB^G EFG|
AcB ced d=fe|ea^g aec ABc|d2=f ecA =Fed|cBA EA^G ~A3:|
|:ecd eg=f g_ba|ac'b c'a=f def|egf gec GA_B|AcB cA=F DEF|
ECD EGF GBA|Bgf gdB GAB|c2e dBG Edc|BAG DGF ~G3:|
